X: 20
T: The Gooseberry Bush or Epping Forest
R: slip-jig
B: Bland & Weller, eds. "24 Favorite Country Dances, Hornpipes and Reels", 1803, London p.10 #20
S: http://imslp.org/wiki/24_Favorite_Country_Dances,_Hornpipes_and_Reels_(Various)
M: 9/8
L: 1/16
Z: 2012 John Chambers <jc:trillian.mit.edu>
N: The 2nd part has initial repeat but no final repeat.
K: Gm
D2 |\
G4G2 (B/c/d3)G2 d2B2G2 | F4F2 (A/B/c3)F2 c2A2F2 |\
G4G2 (B/c/d3)G2 d2B2G2 | F2D2F2 D3CB,A, G,4 :|
|: d2 |\
g2d2g2 g/a/b3a2 g2d2g2 | f2c2f2 f/g/a3g2 f2c2f2 |\
g2d2g2 (g/a/b3)g2 g2d2g2 | f2d2f2 c2A2F2 G4 ||
d2 |\
g2d2g2 (g/a/b3)a2 g2d2g2 | f2c2f2 (f/g/a3)g2 f2c2f2 |\
(g/a/b3)a2 g2d2g2 f2c2f2 | (f/g/a3)d2 c2A2^F2 G4 |]
%%begintext align
%% Half right & left .|
%% back again :|
%% Down the middle up again :|.
%% Allemand :|:
%%endtext

%%sep 1 1 500
%%sep 1 1 500
